svgs/sharp-solid/camcorder.svg

<svg xmlns="http://www.w3.org/2000/svg" viewBox="0 0 576 512"><!--! Font Awesome Pro 6.6.0 by @fontawesome - https://fontawesome.com License - https://fontawesome.com/license (Commercial License) Copyright 2024 Fonticons, Inc. --><path d="M32 32l32 0 224 0 32 0 0 64-32 0L96 96l0 64 288 0 0 320L0 480 0 160l32 0 0-96 0-32zM576 160l0 320L416 400l0-160 160-80zM80 224l-16 0 0 32 16 0 224 0 16 0 0-32-16 0L80 224z"/></svg>

<svg xmlns="http://www.w3.org/2000/svg" viewBox="0 0 576 512"><!--! Font Awesome Pro 6.4.2 by @fontawesome - https://fontawesome.com License - https://fontawesome.com/license (Commercial License) Copyright 2023 Fonticons, Inc. --><path d="M32 32H64 288h32V96H288 96v64H384V480H0V160H32V64 32zM576 160V480L416 400V240l160-80zM80 224H64v32H80 304h16V224H304 80z"/></svg>
